dist/images/advant-3.svg

<svg width="64" height="64" fill="none" xmlns="http://www.w3.org/2000/svg"><path d="M43 46l2 6-8 3 2 3-6 4-1-1 7-17 4 2zm-22 0l-2 6 8 3-2 3 6 4 1-1-7-17-4 2zM32 1H15v1c0 1.032.121 2.037.349 3h-3.53l.194 1.165a15.327 15.327 0 003.536 7.533A17.063 17.063 0 0015 18v9h1.141A3.977 3.977 0 0116 26a4 4 0 014-4v-5.914A14.319 14.319 0 0027.166 18H40a4 4 0 014 4 4 4 0 014 4c0 .347-.058.679-.141 1H49v-9c0-9.374-7.626-17-17-17z" fill="#0094FF"/><path d="M49.123 47.288l-10.259-4.197A2.99 2.99 0 0137 40.314v-.718A18.51 18.51 0 0043.759 31H44c2.757 0 5-2.243 5-5 0-2.446-1.768-4.479-4.092-4.908C44.479 18.768 42.446 17 40 17H27.166c-2.34 0-4.645-.616-6.666-1.781l-1.5-.865v6.747A5.009 5.009 0 0015 26c0 2.757 2.243 5 5 5h.241A18.505 18.505 0 0027 39.596v.718a2.988 2.988 0 01-1.864 2.776l-10.259 4.197A15.842 15.842 0 005 62v1h54v-1a15.84 15.84 0 00-9.877-14.712zM47 26a2.995 2.995 0 01-2.586 2.958c.379-1.482.586-3.025.586-4.607v-1.167c1.161.414 2 1.514 2 2.816zm-30 0c0-1.302.839-2.402 2-2.816v1.167c0 1.582.207 3.125.586 4.607A2.995 2.995 0 0117 26zm4-1.649v-6.642A15.38 15.38 0 0027.166 19H40c1.654 0 3 1.346 3 3v2.351a16.526 16.526 0 01-11 15.591 16.525 16.525 0 01-11-15.591zm7.964 16.445c.864.45 1.772.837 2.719 1.152l.317.106.316-.105a18.69 18.69 0 002.719-1.152 4.968 4.968 0 002.4 3.812c-.153.4-.343.867-.564 1.392h-9.743a45.237 45.237 0 01-.565-1.392 4.97 4.97 0 002.401-3.813zM36.005 48c-1.299 2.932-2.985 6.523-4.005 8.675-1.02-2.153-2.706-5.745-4.004-8.675h8.009zm-20.371 1.14l9.099-3.723c1.534 3.94 6.15 13.567 6.365 14.016L31.851 61H17v-6h-2v6H7.035a13.84 13.84 0 018.599-11.86zM49 61v-6h-2v6H32.148l.753-1.567c.216-.448 4.829-10.06 6.366-14.016l9.099 3.723A13.84 13.84 0 0156.965 61H49z" fill="#345A9C"/><path d="M38 24a1 1 0 100-2 1 1 0 000 2zm-12 0a1 1 0 100-2 1 1 0 000 2zm10 8h-2c0 1.103-.897 2-2 2s-2-.897-2-2h-2c0 2.206 1.794 4 4 4s4-1.794 4-4z" fill="#345A9C"/></svg>

<svg width="64" height="64" viewBox="0 0 64 64" fill="none" xmlns="http://www.w3.org/2000/svg">
<path d="M43 46L45 52L37 55L39 58L33 62L32 61L39 44L43 46Z" fill="#0094FF"/>
<path d="M21 46L19 52L27 55L25 58L31 62L32 61L25 44L21 46Z" fill="#0094FF"/>
<path d="M32 1H15V2C15 3.032 15.121 4.037 15.349 5H11.819L12.013 6.165C12.485 8.996 13.72 11.588 15.549 13.698C15.185 15.096 15 16.54 15 18V27H16.141C16.058 26.679 16 26.347 16 26C16 23.791 17.791 22 20 22V16.5V16.086C22.12 17.308 24.573 18 27.166 18H40C42.209 18 44 19.791 44 22C46.209 22 48 23.791 48 26C48 26.347 47.942 26.679 47.859 27H49V18C49 8.626 41.374 1 32 1Z" fill="#0094FF"/>
<path d="M49.123 47.288L38.864 43.091C37.732 42.628 37 41.538 37 40.314V39.596C40.077 37.47 42.427 34.47 43.759 31H44C46.757 31 49 28.757 49 26C49 23.554 47.232 21.521 44.908 21.092C44.479 18.768 42.446 17 40 17H27.166C24.826 17 22.521 16.384 20.5 15.219L19 14.354V21.101C16.721 21.566 15 23.585 15 26C15 28.757 17.243 31 20 31H20.241C21.573 34.471 23.923 37.47 27 39.596V40.314C27 41.538 26.268 42.627 25.136 43.09L14.877 47.287C8.877 49.743 5 55.518 5 62V63H59V62C59 55.518 55.123 49.743 49.123 47.288ZM47 26C47 27.512 45.871 28.754 44.414 28.958C44.793 27.476 45 25.933 45 24.351V23.184C46.161 23.598 47 24.698 47 26ZM17 26C17 24.698 17.839 23.598 19 23.184V24.351C19 25.933 19.207 27.476 19.586 28.958C18.129 28.754 17 27.512 17 26ZM21 24.351V17.709C22.936 18.557 25.038 19 27.166 19H40C41.654 19 43 20.346 43 22V24.351C43 31.374 38.594 37.598 32 39.942C25.406 37.598 21 31.375 21 24.351ZM28.964 40.796C29.828 41.246 30.736 41.633 31.683 41.948L32 42.054L32.316 41.949C33.263 41.633 34.171 41.247 35.035 40.797C35.187 42.387 36.072 43.798 37.435 44.609C37.282 45.009 37.092 45.476 36.871 46.001H27.128C26.906 45.476 26.716 45.008 26.563 44.609C27.927 43.797 28.812 42.386 28.964 40.796ZM36.005 48C34.706 50.932 33.02 54.523 32 56.675C30.98 54.522 29.294 50.93 27.996 48H36.005ZM15.634 49.14L24.733 45.417C26.267 49.357 30.883 58.984 31.098 59.433L31.851 61H17V55H15V61H7.035C7.408 55.745 10.7 51.158 15.634 49.14ZM49 61V55H47V61H32.148L32.901 59.433C33.117 58.985 37.73 49.373 39.267 45.417L48.366 49.14C53.3 51.159 56.592 55.745 56.965 61H49Z" fill="#345A9C"/>
<path d="M38 24C38.5523 24 39 23.5523 39 23C39 22.4477 38.5523 22 38 22C37.4477 22 37 22.4477 37 23C37 23.5523 37.4477 24 38 24Z" fill="#345A9C"/>
<path d="M26 24C26.5523 24 27 23.5523 27 23C27 22.4477 26.5523 22 26 22C25.4477 22 25 22.4477 25 23C25 23.5523 25.4477 24 26 24Z" fill="#345A9C"/>
<path d="M36 32H34C34 33.103 33.103 34 32 34C30.897 34 30 33.103 30 32H28C28 34.206 29.794 36 32 36C34.206 36 36 34.206 36 32Z" fill="#345A9C"/>
</svg>
